X:15
T:Peasants Dance,The. JBi.15
T:Pheasantâ€™s Dance,aka. JB15
M:6/8
L:1/8
Q:3/8=120
S:James Biggins MS, Leeds, 1779.
R:.Jig
O:England
A:Yorkshire
N:Vickers MS =â€Pheasants Danceâ€â€¦.Well, shoot the buggers anyway,Talley
N:Ho!â€¦CGP..
Z:vmp.Nick Barber & Chris Partington
K:A
c2d efe|d2c Bcd|ecAF2B|GEGA3|!
|(c2A)(d2B)|(c2A)(B2a)|ecAF2B|GEGA3|!
|a2e aec|(a2c)(b2B)|cdeF2B|GEGA3|!
|cecd2f|(B2d)(A2e)|(A2c) BdB|GEGA3|]

